src/sources/forus-platform/resources/_platform-common/assets/img/features/icons/bi-tools/icon-3.svg

<svg width="59" height="58" viewBox="0 0 59 58" fill="none" xmlns="http://www.w3.org/2000/svg">
    <rect x="0.75" width="58" height="58" rx="8" fill="#F7F9FC"/>
    <path d="M27.2495 13.0001C23.4382 13.0001 26.063 14.5316 22.769 15.9229C19.475 17.3142 20.131 14.4772 17.6225 17.0176C15.114 19.5581 17.9518 18.8565 16.6108 22.1592C15.2697 25.462 13.7198 22.9936 13.7504 26.5001C13.7198 30.0065 15.2697 27.5381 16.6108 30.8409C17.9518 34.1436 15.114 33.4421 17.6225 35.9825C20.131 38.5229 19.475 35.6859 22.769 37.0772C26.063 38.4685 23.4382 40.0001 27.2495 40.0001C31.0608 40.0001 28.4359 38.4685 31.7299 37.0772C35.024 35.6859 34.368 38.5229 36.8764 35.9825C39.3849 33.4421 36.5471 34.1436 37.8882 30.8409C39.2292 27.5381 40.7791 30.0065 40.7485 26.5001C40.7791 22.9936 39.2292 25.462 37.8882 22.1592C36.5471 18.8565 39.3849 19.5581 36.8764 17.0176C34.368 14.4772 35.024 17.3142 31.7299 15.9229C28.4359 14.5316 31.0608 13.0001 27.2495 13.0001Z" fill="#092DAA"/>
    <path d="M27.249 13C26.8438 13 26.5246 13.0211 26.25 13.0537C28.5563 13.3281 26.7861 14.6796 29.7295 15.9229C31.1289 16.5139 31.8061 16.3413 32.3252 16.1426C32.1417 16.0851 31.9448 16.0138 31.7295 15.9229C28.4355 14.5315 31.0603 13 27.249 13V13Z" fill="#092DAA"/>
    <path d="M35.2344 15.918C34.8088 15.8771 34.4926 16.1201 33.9961 16.25C34.2423 16.4212 34.5259 16.663 34.876 17.0176C37.3845 19.558 34.5466 18.8564 35.8877 22.1592C37.2287 25.4619 38.7787 22.9935 38.748 26.5C38.7786 30.0064 37.2287 27.538 35.8877 30.8408C34.5466 34.1436 37.3845 33.442 34.876 35.9824C34.5259 36.337 34.2423 36.5788 33.9961 36.75C34.9395 36.9967 35.2209 37.6586 36.876 35.9824C39.3845 33.442 36.5466 34.1436 37.8877 30.8408C39.2287 27.538 40.7786 30.0064 40.748 26.5C40.7787 22.9935 39.2287 25.4619 37.8877 22.1592C36.5466 18.8564 39.3845 19.558 36.876 17.0176C36.0921 16.2237 35.6173 15.9547 35.2344 15.918Z" fill="#021C78"/>
    <path d="M31.2129 36.6767C30.8261 36.7036 30.3471 36.8162 29.7295 37.0771C26.7861 38.3204 28.5563 39.6719 26.25 39.9463C26.5246 39.9789 26.8438 40 27.249 40C31.0603 40 28.4355 38.4685 31.7295 37.0771C31.9448 36.9862 32.1417 36.9149 32.3252 36.8574C32.0352 36.7464 31.7025 36.6427 31.2129 36.6767V36.6767Z" fill="#092DAA"/>
    <path d="M34.6875 26.5C34.6875 30.6076 31.3576 33.9375 27.25 33.9375C23.1424 33.9375 19.8125 30.6076 19.8125 26.5C19.8125 22.3924 23.1424 19.0625 27.25 19.0625C31.3576 19.0625 34.6875 22.3924 34.6875 26.5Z" fill="white"/>
    <path d="M27.2495 20.4998C26.465 20.5007 25.6872 20.6437 24.9536 20.9217C24.8199 21.2655 24.7507 21.631 24.7495 21.9998C24.7495 23.6567 26.0926 24.9999 27.7495 24.9998C29.4064 24.9999 30.7496 23.6567 30.7495 21.9998C30.7492 21.8342 30.7351 21.669 30.7075 21.5057C29.6726 20.8514 28.4739 20.5027 27.2496 20.4998H27.2495Z" fill="#E6ECFF"/>
    <path d="M27.7495 24C24.9795 24 22.7495 26.23 22.7495 29V30.6445C23.9311 32.0689 25.6638 32.9221 27.5132 32.9902C29.653 32.9011 31.6117 31.7637 32.7495 29.9492V29C32.7495 26.23 30.5195 24 27.7495 24Z" fill="#E6ECFF"/>
    <path d="M27.2494 23.7143C24.0837 23.7143 21.5352 26.2629 21.5352 29.4286V31.308C22.9446 33.0108 25.039 33.9975 27.2494 34C29.4587 33.9992 31.553 33.015 32.9637 31.3147V29.4286C32.9637 26.2629 30.4151 23.7143 27.2494 23.7143Z" fill="#315EFD"/>
    <path d="M30.1366 24.4989C31.8842 31.9101 24.3179 32.3025 22.5261 32.2936C23.8547 33.3935 25.5246 33.9968 27.2493 34C29.4586 33.9992 31.5529 33.015 32.9636 31.3148V29.4286C32.9636 27.3191 31.8284 25.4889 30.1366 24.4989Z" fill="#1C45D3"/>
    <path d="M30.678 21.4285C30.678 23.3219 29.143 24.8569 27.2495 24.8569C25.356 24.8569 23.821 23.3219 23.821 21.4285C23.821 19.535 25.356 18 27.2495 18C29.143 18 30.678 19.535 30.678 21.4285Z" fill="#C4D1FF"/>
    <path d="M28.6557 18.3047C28.8572 18.7474 28.9623 19.2279 28.9638 19.7143C28.9638 21.6078 27.4288 23.1427 25.5354 23.1427C25.0503 23.1417 24.571 23.0378 24.1292 22.8379C24.6827 24.0652 25.9033 24.8549 27.2496 24.8568C29.1431 24.8568 30.678 23.3218 30.678 21.4283C30.6768 20.08 29.8855 18.8576 28.6558 18.3046L28.6557 18.3047Z" fill="#9CB8F8"/>
    <path d="M26.1507 20.2757C25.8702 20.5642 25.4982 20.6493 25.3197 20.4657C25.1412 20.2821 25.2239 19.8993 25.5044 19.6108C25.7848 19.3223 26.1569 19.2372 26.3354 19.4208C26.5139 19.6044 26.4312 19.9872 26.1507 20.2757Z" fill="white"/>
    <path d="M26.7967 19.3065C26.6858 19.3807 26.5588 19.382 26.5129 19.3094C26.4671 19.2368 26.5198 19.1179 26.6306 19.0437C26.7414 18.9695 26.8685 18.9683 26.9143 19.0408C26.9602 19.1134 26.9075 19.2323 26.7967 19.3065Z" fill="white"/>
    <path d="M45.75 37C45.75 41.4183 42.1683 45 37.75 45C33.3317 45 29.75 41.4183 29.75 37C29.75 32.5817 33.3317 29 37.75 29C42.1683 29 45.75 32.5817 45.75 37Z" fill="#305DFC"/>
    <path d="M33.4444 36.3831C32.6237 36.3831 32.6237 37.6142 33.4444 37.6142H42.0573C42.878 37.6142 42.878 36.3831 42.0573 36.3831H33.4444Z" fill="white"/>
    <path d="M33.4444 40.0764C32.6237 40.0764 32.6237 41.3074 33.4444 41.3074H42.0573C42.8781 41.3074 42.8781 40.0764 42.0573 40.0764H33.4444Z" fill="white"/>
    <path d="M33.4444 32.6923C32.6237 32.6923 32.6237 33.9234 33.4444 33.9234H42.0573C42.878 33.9234 42.878 32.6923 42.0573 32.6923H33.4444Z" fill="white"/>
    <path d="M40.204 31.4543C39.864 31.458 39.5914 31.7366 39.5953 32.0766V34.5388C39.5953 35.3595 40.8263 35.3595 40.8263 34.5388V32.0766C40.8303 31.7313 40.5493 31.4504 40.204 31.4543Z" fill="#6892FF"/>
    <path d="M35.2797 35.143C34.9379 35.1467 34.6646 35.4281 34.671 35.7699V38.232C34.671 39.0527 35.9021 39.0527 35.9021 38.232V35.7699C35.9086 35.4228 35.6269 35.139 35.2797 35.143Z" fill="#6892FF"/>
    <path d="M40.204 38.8362C39.8623 38.8399 39.5889 39.1213 39.5953 39.4631V41.9252C39.5953 42.7459 40.8264 42.7459 40.8264 41.9252V39.4631C40.8329 39.116 40.5512 38.8322 40.204 38.8362Z" fill="#6892FF"/>
</svg>

<svg width="59" height="58" fill="none" xmlns="http://www.w3.org/2000/svg"><rect x=".75" width="58" height="58" rx="8" fill="#F7F9FC"/><path d="M27.25 13c-3.812 0-1.187 1.532-4.481 2.923-3.294 1.391-2.638-1.446-5.146 1.095-2.509 2.54.329 1.838-1.012 5.141s-2.891.835-2.86 4.341c-.031 3.506 1.519 1.038 2.86 4.34 1.34 3.304-1.497 2.602 1.011 5.143 2.509 2.54 1.853-.297 5.147 1.094 3.294 1.392.67 2.923 4.48 2.923 3.812 0 1.187-1.532 4.48-2.923 3.295-1.391 2.639 1.446 5.147-1.094 2.509-2.54-.329-1.84 1.012-5.142 1.341-3.303 2.891-.835 2.86-4.34.031-3.507-1.519-1.039-2.86-4.342-1.34-3.302 1.497-2.6-1.012-5.141-2.508-2.54-1.852.296-5.146-1.095C28.436 14.532 31.06 13 27.25 13Z" fill="#092DAA"/><path d="M27.249 13c-.405 0-.724.021-.999.054 2.306.274.536 1.626 3.48 2.869 1.399.59 2.076.418 2.595.22a6.597 6.597 0 0 1-.596-.22C28.437 14.53 31.06 13 27.25 13Z" fill="#092DAA"/><path d="M35.234 15.918c-.425-.04-.741.202-1.238.332.246.171.53.413.88.768 2.509 2.54-.33 1.838 1.012 5.141 1.34 3.303 2.89.835 2.86 4.341.03 3.506-1.52 1.038-2.86 4.34-1.341 3.304 1.497 2.602-1.012 5.142a6.41 6.41 0 0 1-.88.768c.944.247 1.225.909 2.88-.768 2.509-2.54-.33-1.838 1.012-5.141 1.34-3.303 2.89-.835 2.86-4.341.03-3.506-1.52-1.038-2.86-4.34-1.341-3.304 1.497-2.602-1.012-5.142-.784-.794-1.259-1.063-1.642-1.1Z" fill="#021C78"/><path d="M31.213 36.677c-.387.027-.866.14-1.483.4-2.944 1.243-1.174 2.595-3.48 2.87.275.032.594.053.999.053 3.811 0 1.187-1.532 4.48-2.923.216-.09.413-.162.596-.22a2.418 2.418 0 0 0-1.112-.18Z" fill="#092DAA"/><path d="M34.688 26.5a7.438 7.438 0 1 1-14.876 0 7.438 7.438 0 0 1 14.875 0Z" fill="#fff"/><path d="M27.25 20.5a6.5 6.5 0 0 0-2.296.422c-.134.343-.203.709-.204 1.078a3 3 0 1 0 5.957-.494A6.5 6.5 0 0 0 27.25 20.5Z" fill="#E6ECFF"/><path d="M27.75 24c-2.77 0-5 2.23-5 5v1.645a6.5 6.5 0 0 0 4.763 2.345 6.5 6.5 0 0 0 5.236-3.04V29c0-2.77-2.23-5-5-5Z" fill="#E6ECFF"/><path d="M27.25 23.714a5.702 5.702 0 0 0-5.715 5.715v1.879A7.428 7.428 0 0 0 27.25 34c2.21 0 4.304-.985 5.715-2.685v-1.886a5.702 5.702 0 0 0-5.715-5.715Z" fill="#315EFD"/><path d="M30.137 24.499c1.747 7.411-5.82 7.804-7.61 7.795A7.428 7.428 0 0 0 27.248 34c2.21 0 4.304-.985 5.715-2.685v-1.886c0-2.11-1.136-3.94-2.827-4.93Z" fill="#1C45D3"/><path d="M30.678 21.428a3.428 3.428 0 1 1-6.857 0 3.428 3.428 0 0 1 6.857 0Z" fill="#C4D1FF"/><path d="M28.656 18.305c.201.442.306.923.308 1.41a3.428 3.428 0 0 1-3.429 3.428 3.428 3.428 0 0 1-1.406-.305 3.428 3.428 0 0 0 3.12 2.019 3.428 3.428 0 0 0 3.429-3.429 3.428 3.428 0 0 0-2.022-3.123Z" fill="#9CB8F8"/><path d="M26.15 20.276c-.28.288-.652.373-.83.19-.179-.184-.096-.567.184-.855.28-.289.653-.374.831-.19.179.183.096.566-.184.855ZM26.797 19.306c-.111.075-.238.076-.284.003-.046-.072.007-.191.118-.265.11-.075.238-.076.283-.003.046.072-.007.191-.117.265Z" fill="#fff"/><path d="M45.75 37a8 8 0 1 1-16 0 8 8 0 0 1 16 0Z" fill="#305DFC"/><path d="M33.444 36.383c-.82 0-.82 1.231 0 1.231h8.613c.821 0 .821-1.23 0-1.23h-8.613ZM33.444 40.076c-.82 0-.82 1.231 0 1.231h8.613c.821 0 .821-1.23 0-1.23h-8.613ZM33.444 32.692c-.82 0-.82 1.231 0 1.231h8.613c.821 0 .821-1.23 0-1.23h-8.613Z" fill="#fff"/><path d="M40.204 31.454a.615.615 0 0 0-.609.623v2.462c0 .82 1.231.82 1.231 0v-2.462a.615.615 0 0 0-.622-.623ZM35.28 35.143a.615.615 0 0 0-.609.627v2.462c0 .82 1.231.82 1.231 0V35.77a.615.615 0 0 0-.622-.627ZM40.204 38.836a.615.615 0 0 0-.609.627v2.462c0 .82 1.231.82 1.231 0v-2.462a.615.615 0 0 0-.622-.627Z" fill="#6892FF"/></svg>
